images/icons/home.svg

<?xml version="1.0"?><svg xmlns="http://www.w3.org/2000/svg"  viewBox="0 0 24 24" width="30px" height="30px">    <path d="M 12 2 A 1 1 0 0 0 11.289062 2.296875 L 1.203125 11.097656 A 0.5 0.5 0 0 0 1 11.5 A 0.5 0.5 0 0 0 1.5 12 L 4 12 L 4 20 C 4 20.552 4.448 21 5 21 L 9 21 C 9.552 21 10 20.552 10 20 L 10 14 L 14 14 L 14 20 C 14 20.552 14.448 21 15 21 L 19 21 C 19.552 21 20 20.552 20 20 L 20 12 L 22.5 12 A 0.5 0.5 0 0 0 23 11.5 A 0.5 0.5 0 0 0 22.796875 11.097656 L 12.716797 2.3027344 A 1 1 0 0 0 12.710938 2.296875 A 1 1 0 0 0 12 2 z"/></svg>

<svg xmlns="http://www.w3.org/2000/svg" viewBox="0 0 24 24" width="30" height="30"><path d="M12 2a1 1 0 00-.71.297l-10.087 8.8A.5.5 0 001 11.5a.5.5 0 00.5.5H4v8a1 1 0 001 1h4a1 1 0 001-1v-6h4v6a1 1 0 001 1h4a1 1 0 001-1v-8h2.5a.5.5 0 00.5-.5.5.5 0 00-.203-.402l-10.08-8.795a1 1 0 00-.006-.006A1 1 0 0012 2z"/></svg>
